mono-glyphs/movies2-w.svg

<svg width="1024" height="1024" viewBox="0 0 1024 1024" fill="none" xmlns="http://www.w3.org/2000/svg">
<mask id="mask0_47_1315" style="mask-type:luminance" maskUnits="userSpaceOnUse" x="33" y="0" width="958" height="1024">
<path d="M990.87 0H33.1289V1024H990.87V0Z" fill="white"/>
</mask>
<g mask="url(#mask0_47_1315)">
<path d="M33.1289 317.741C33.1289 302.013 35.6387 286.871 40.6583 272.314C45.6779 257.757 52.7054 244.455 61.7407 232.408C70.776 220.361 81.5681 209.987 94.1171 201.286C106.666 192.585 120.47 186.06 135.529 181.71L752.941 5.01962C766.661 1.33861 779.879 -0.501953 792.596 -0.501953C808.324 -0.501953 823.383 2.00785 837.772 7.02746C852.161 12.0471 865.38 19.0745 877.427 28.1098C889.474 37.1451 899.847 47.9373 908.548 60.4863C917.249 73.0353 923.775 86.8392 928.125 101.898C929.463 106.918 931.806 114.698 935.152 125.239C938.498 135.78 941.846 146.74 945.192 158.118C948.538 169.495 951.466 180.204 953.976 190.243C956.486 200.282 957.741 207.31 957.741 211.326C957.741 220.026 955.147 227.807 949.96 234.667C944.773 241.526 937.996 246.128 929.631 248.471L378.478 406.086H952.219C962.928 406.086 972.046 409.851 979.576 417.38C987.105 424.91 990.87 434.028 990.87 444.737V881.443C990.87 899.179 987.44 916.497 980.58 933.396C973.72 950.295 964.266 965.438 952.219 978.824C940.172 992.209 926.034 1002.92 909.803 1010.95C893.573 1018.98 876.255 1023 857.85 1023H206.807C187.399 1023 169.077 1019.23 151.843 1011.7C134.608 1004.17 119.634 994.05 106.917 981.333C94.2008 968.617 84.0779 953.642 76.5485 936.408C69.0191 919.174 65.2544 900.852 65.2544 881.443V450.259C65.2544 450.259 64.6688 448.083 63.4975 443.733C62.3263 439.383 60.8204 433.945 58.9799 427.42C57.1394 420.894 55.0478 413.699 52.7054 405.835C50.3629 397.972 48.2714 390.609 46.4309 383.749C44.5904 376.889 42.9171 370.949 41.4113 365.929C39.9054 360.91 38.9851 357.898 38.6505 356.894C34.9694 343.843 33.1289 330.792 33.1289 317.741ZM739.388 222.369L871.403 184.722L853.835 122.98C851.157 113.945 846.64 105.746 840.282 98.3843C833.924 91.0223 826.395 85.5007 817.694 81.8196L739.388 222.369ZM582.776 134.024L494.933 292.643L634.478 252.486L722.823 93.8667L582.776 134.024ZM338.321 203.796L250.478 362.918L390.023 322.761L478.368 163.639L338.321 203.796ZM130.509 397.051L145.568 393.035L233.913 233.914L156.611 256C142.891 260.016 131.764 267.796 123.231 279.341C114.698 290.886 110.431 303.686 110.431 317.741C110.431 323.095 111.184 329.286 112.69 336.314C114.196 343.341 116.036 350.536 118.211 357.898C120.387 365.26 122.646 372.372 124.988 379.231C127.33 386.091 129.171 392.031 130.509 397.051ZM913.568 881.443V483.388H142.556V881.443C142.556 889.14 144.062 896.753 147.074 904.282C150.086 911.812 154.185 918.672 159.372 924.863C164.559 931.054 170.666 936.074 177.694 939.922C184.721 943.77 192.25 945.694 200.282 945.694H849.317C858.018 945.694 866.3 944.021 874.164 940.675C882.028 937.329 888.889 932.727 894.745 926.871C900.6 921.015 905.202 914.154 908.548 906.29C911.895 898.427 913.568 890.144 913.568 881.443Z" fill="white"/>
</g>
</svg>

<svg xmlns="http://www.w3.org/2000/svg" width="1024" height="1024" fill="none" viewBox="0 0 1024 1024">
  <g clip-path="url(#a)">
    <path fill="#fff" d="M33.129 317.741c0-15.728 2.51-30.87 7.53-45.427 5.019-14.557 12.046-27.859 21.082-39.906 9.035-12.047 19.827-22.421 32.376-31.122 12.549-8.701 26.353-15.226 41.412-19.576L752.941 5.02c13.72-3.681 26.938-5.522 39.655-5.522 15.728 0 30.787 2.51 45.176 7.53 14.389 5.02 27.608 12.047 39.655 21.082s22.42 19.827 31.121 32.376c8.701 12.55 15.227 26.353 19.577 41.412 1.338 5.02 3.681 12.8 7.027 23.341a1611.136 1611.136 0 0 1 10.04 32.879c3.346 11.377 6.274 22.086 8.784 32.125 2.51 10.039 3.765 17.067 3.765 21.083 0 8.7-2.594 16.481-7.781 23.341-5.187 6.859-11.964 11.461-20.329 13.804L378.478 406.086h573.741c10.709 0 19.827 3.765 27.357 11.294 7.529 7.53 11.294 16.648 11.294 27.357v436.706c0 17.736-3.43 35.054-10.29 51.953-6.86 16.899-16.314 32.042-28.361 45.428-12.047 13.385-26.185 24.096-42.416 32.126-16.23 8.03-33.548 12.05-51.953 12.05H206.807c-19.408 0-37.73-3.77-54.964-11.3-17.235-7.53-32.209-17.65-44.926-30.367-12.716-12.716-22.84-27.691-30.368-44.925-7.53-17.234-11.295-35.556-11.295-54.965V450.259l-1.757-6.526a1549.27 1549.27 0 0 0-10.792-37.898 840.555 840.555 0 0 1-6.274-22.086c-1.84-6.86-3.514-12.8-5.02-17.82-1.506-5.019-2.426-8.031-2.76-9.035-3.682-13.051-5.522-26.102-5.522-39.153Zm706.259-95.372 132.015-37.647-17.568-61.742c-2.678-9.035-7.195-17.234-13.553-24.596-6.358-7.362-13.887-12.883-22.588-16.564l-78.306 140.549Zm-156.612-88.345-87.843 158.619 139.545-40.157 88.345-158.62-140.047 40.158Zm-244.455 69.772-87.843 159.122 139.545-40.157 88.345-159.122-140.047 40.157ZM130.509 397.051l15.059-4.016 88.345-159.121L156.611 256c-13.72 4.016-24.847 11.796-33.38 23.341-8.533 11.545-12.8 24.345-12.8 38.4 0 5.354.753 11.545 2.259 18.573 1.506 7.027 3.346 14.222 5.521 21.584a537.815 537.815 0 0 0 6.777 21.333c2.342 6.86 4.183 12.8 5.521 17.82Zm783.059 484.392V483.388H142.556v398.055c0 7.697 1.506 15.31 4.518 22.839a75.504 75.504 0 0 0 12.298 20.581c5.187 6.191 11.294 11.211 18.322 15.059 7.027 3.848 14.556 5.772 22.588 5.772h649.035c8.701 0 16.983-1.673 24.847-5.019 7.864-3.346 14.725-7.948 20.581-13.804 5.855-5.856 10.457-12.717 13.803-20.581 3.347-7.863 5.02-16.146 5.02-24.847Z"/>
  </g>
  <defs>
    <clipPath id="a">
      <path fill="#fff" d="M0 0h1024v1024H0z"/>
    </clipPath>
  </defs>
</svg>
